<?xml version="1.0" encoding="UTF-8"?>
<map version="1.10" tiledversion="1.11.0" orientation="orthogonal" renderorder="right-down" width="80" height="44" tilewidth="32" tileheight="32" infinite="0" nextlayerid="20" nextobjectid="37">
 <properties>
  <property name="zone_cols" type="int" value="40"/>
  <property name="zone_rows" type="int" value="22"/>
 </properties>
 <tileset firstgid="1" source="Tileset_Dungeon.tsx"/>
 <layer id="1" name="Floor" width="80" height="44">
  <data encoding="csv">
17,38,26,26,26,15,17,15,27,16,26,38,38,15,15,15,16,28,17,41,28,26,29,16,38,39,28,16,41,41,38,14,39,39,26,26,14,28,39,16,38,26,40,26,38,28,26,41,40,29,28,26,26,39,41,15,39,40,14,17,26,26,38,38,17,41,16,16,27,26,26,26,28,15,16,15,26,15,39,27,
17,27,39,14,16,40,27,38,40,26,40,29,29,15,16,41,26,14,38,38,15,29,39,39,17,27,27,29,17,40,28,41,28,41,41,15,15,38,40,39,15,28,17,17,40,15,38,41,40,15,38,38,41,39,15,28,40,29,41,15,29,27,28,28,28,16,26,14,39,17,41,16,39,39,28,29,40,17,28,17,
14,39,26,15,27,27,16,38,39,38,16,28,16,28,29,15,39,38,41,16,38,40,29,38,41,38,26,17,28,27,17,17,14,41,40,29,27,41,14,27,39,27,17,28,26,40,14,17,27,17,26,15,39,14,16,17,27,29,14,28,15,16,27,27,17,39,38,41,16,29,14,16,38,40,14,14,41,16,14,39,
38,28,26,38,27,14,14,29,14,39,41,14,26,38,27,17,41,38,17,27,15,38,41,16,40,40,16,38,15,17,39,40,27,39,17,29,14,16,27,15,38,26,16,39,29,39,16,39,16,16,17,16,41,28,28,15,28,27,39,28,27,40,41,41,27,38,38,26,17,29,17,26,39,28,39,16,14,15,40,29,
14,38,29,38,16,38,38,14,39,29,28,27,16,29,38,29,39,38,15,26,39,27,27,17,17,41,40,41,16,26,28,15,38,27,29,14,17,15,15,41,14,15,26,40,26,29,38,39,28,38,26,40,29,26,39,39,17,38,27,40,28,38,38,14,27,14,41,15,39,40,41,16,29,26,26,27,39,14,14,14,
41,38,28,17,28,28,29,16,40,14,14,27,41,29,41,38,27,29,41,39,16,27,15,40,15,29,16,40,14,14,17,17,28,16,17,14,38,39,29,41,26,41,40,40,14,14,15,14,38,26,29,27,29,38,17,15,26,26,14,28,29,28,39,38,40,29,26,29,14,15,27,28,16,29,15,27,28,39,26,26,
29,16,39,14,39,38,16,38,15,38,14,27,14,17,17,41,17,39,29,15,15,38,15,39,14,27,27,16,41,27,41,29,29,41,41,38,16,17,28,16,15,28,41,39,14,14,29,27,26,17,38,26,38,16,16,40,38,38,38,29,40,26,29,41,16,16,28,27,29,15,15,15,29,40,39,29,27,38,38,29,
26,17,27,15,17,14,29,16,38,16,16,26,27,17,15,16,26,16,28,38,15,15,41,41,28,39,29,39,27,27,38,41,29,38,16,28,28,28,39,39,28,15,17,28,16,38,38,40,38,39,39,38,29,41,38,26,28,15,40,41,27,26,27,40,41,14,38,14,16,15,15,15,14,28,27,17,14,14,29,28,
26,26,27,38,40,38,41,26,17,14,38,41,41,40,39,17,28,39,17,14,29,38,26,26,28,15,14,15,41,17,38,27,14,28,15,27,14,14,14,29,26,38,29,15,16,41,38,29,16,15,26,16,17,14,27,29,26,39,38,28,27,41,16,38,27,15,15,17,15,14,16,29,17,29,14,28,14,17,29,16,
27,38,16,38,17,28,15,27,41,26,38,16,29,28,26,29,28,29,28,29,17,28,27,40,27,16,38,29,26,41,29,40,38,29,17,41,41,38,28,38,16,16,29,26,39,28,17,39,39,41,39,28,39,27,14,26,16,16,27,40,15,15,41,14,28,15,38,16,28,29,16,28,40,16,39,14,40,27,16,41,
16,41,39,14,16,15,40,39,26,16,28,28,38,41,41,16,41,14,16,29,26,29,17,16,16,16,41,41,27,15,39,41,26,41,41,29,40,38,39,41,39,28,14,41,38,14,39,29,38,28,27,15,38,28,41,26,29,27,39,14,39,17,40,17,17,14,41,41,26,29,14,27,27,16,27,26,27,40,15,28,
38,28,39,28,40,17,29,17,29,29,26,27,15,29,39,14,41,15,40,28,29,14,27,29,28,38,15,40,26,39,28,14,39,28,29,38,29,41,41,29,27,16,17,29,28,29,29,28,26,15,39,29,29,38,17,15,27,29,41,28,28,17,14,39,27,40,26,16,29,29,41,38,38,38,28,41,17,26,16,16,
27,15,15,15,40,41,26,41,39,27,14,29,14,14,38,17,15,38,16,16,27,17,29,14,27,17,14,14,14,29,41,16,40,26,39,29,28,39,38,29,15,29,29,14,17,17,40,28,16,29,17,26,16,26,27,27,27,14,26,40,16,28,27,26,29,29,27,26,28,38,41,29,26,41,28,17,40,38,14,26,
41,28,27,15,40,26,26,41,39,27,15,41,39,26,28,26,26,28,41,38,38,28,29,15,17,27,16,14,15,14,29,16,39,27,26,16,38,40,28,16,39,17,15,40,17,26,41,16,27,41,17,39,39,29,29,17,15,40,28,39,16,15,27,16,41,38,14,38,16,16,15,15,26,17,38,38,14,16,40,16,
29,38,38,41,40,41,27,41,16,26,16,14,26,17,14,17,29,40,16,28,27,16,17,14,15,39,40,29,27,39,26,26,41,28,26,28,29,17,29,27,40,29,38,17,16,15,14,40,17,29,17,39,38,16,15,27,40,16,41,27,26,39,26,39,27,14,41,28,40,26,27,39,41,38,41,26,39,38,40,16,
39,39,27,29,27,17,40,26,15,26,38,17,28,16,26,26,26,38,29,40,14,38,38,38,17,41,38,28,28,15,28,29,16,26,29,15,28,17,14,40,28,40,27,41,17,40,40,41,28,27,41,27,28,39,27,39,41,38,17,27,29,14,27,28,38,29,15,41,17,29,16,17,26,26,39,27,27,16,15,27,
40,14,17,27,16,17,15,40,38,15,17,14,26,28,28,28,28,27,28,41,28,17,15,40,38,16,28,15,14,40,28,16,29,14,27,16,16,14,14,39,26,39,38,26,16,38,15,39,14,41,40,17,16,15,15,15,39,15,39,17,28,29,15,41,14,27,41,41,28,16,28,28,16,38,27,15,29,38,17,29,
14,38,16,16,39,27,41,41,17,27,27,41,41,16,15,17,17,15,26,15,27,26,38,39,14,15,14,38,41,14,41,38,28,41,17,15,16,38,16,39,14,38,26,38,26,41,15,14,14,27,38,40,14,29,38,27,39,39,26,39,39,17,27,28,27,27,17,27,29,17,40,29,26,16,40,27,38,14,38,16,
14,39,38,28,40,28,40,39,29,39,28,17,41,26,14,14,38,14,40,40,27,16,15,38,40,38,38,26,16,41,27,17,16,41,14,38,29,38,26,40,17,41,17,16,26,29,26,15,41,15,41,29,40,27,16,17,26,38,29,27,40,29,14,41,40,29,39,39,15,14,16,41,15,29,15,26,14,27,28,29,
38,27,26,29,41,41,29,38,39,14,26,15,28,38,29,39,14,28,14,41,16,38,17,29,39,26,16,28,26,41,38,14,15,27,17,27,26,38,14,16,17,40,39,15,40,40,16,26,16,15,15,29,29,38,29,29,40,27,14,16,41,28,41,40,14,28,40,16,27,29,14,29,29,39,38,27,15,16,14,17,
26,38,15,38,16,17,40,40,29,40,41,38,14,28,38,27,28,40,41,16,17,26,27,38,39,29,26,17,14,41,17,26,15,40,26,38,41,29,41,28,26,40,40,41,16,16,40,16,39,40,17,15,41,29,16,14,14,38,14,16,39,16,15,40,17,39,17,41,17,41,26,17,29,16,17,41,38,39,27,27,
15,38,40,38,26,41,16,26,28,41,40,27,29,26,26,17,16,14,39,28,28,16,26,41,26,39,38,39,29,16,40,15,41,39,27,40,28,28,38,14,14,40,15,14,26,26,17,40,27,39,39,14,41,29,28,17,14,28,41,16,29,40,15,28,26,40,41,29,40,29,39,27,29,15,39,28,17,27,39,38,
15,29,39,15,28,28,41,16,14,15,15,16,28,41,16,26,14,17,27,39,27,28,16,15,39,27,15,15,16,27,16,14,27,28,39,15,27,40,17,29,17,29,40,40,29,27,40,17,17,27,38,40,17,38,15,40,41,38,14,26,27,41,38,39,38,26,16,16,17,26,17,17,28,28,15,27,15,40,39,16,
38,26,40,28,40,40,38,38,15,26,17,29,38,38,41,15,14,40,41,29,15,28,40,15,15,27,39,39,26,16,17,16,39,41,39,29,27,40,26,17,29,17,38,17,41,26,16,16,28,26,28,41,40,14,38,41,16,15,17,17,40,40,26,40,40,16,28,41,38,41,41,29,41,28,41,29,26,16,39,16,
27,27,40,38,29,14,41,39,16,27,14,27,40,39,38,26,39,17,39,16,28,14,27,29,41,38,40,15,38,14,39,41,27,28,17,16,16,41,29,27,38,14,17,38,39,28,17,16,40,26,16,40,40,39,16,26,28,16,29,27,27,29,41,15,29,14,26,17,15,41,27,27,27,29,41,16,27,26,38,16,
17,17,40,27,26,26,16,17,41,41,40,14,38,40,41,15,16,17,16,15,14,27,27,29,14,27,40,14,28,29,17,27,39,27,17,38,28,38,15,17,27,15,39,38,26,40,26,29,38,15,41,15,40,26,38,27,27,28,16,40,26,40,26,28,27,27,15,29,17,16,39,38,27,14,29,15,27,15,41,39,
28,16,14,28,26,27,15,27,26,17,15,39,26,40,16,29,41,38,41,29,38,26,38,16,15,40,39,17,14,38,15,26,17,29,28,39,26,16,27,26,38,38,16,38,38,38,29,41,15,39,39,27,27,15,17,40,14,28,26,41,16,39,16,39,26,27,29,14,15,28,28,15,15,14,29,27,38,39,28,27,
26,29,39,27,28,27,39,15,38,14,14,28,15,14,38,39,38,17,16,14,17,17,15,40,17,15,41,41,17,26,38,15,28,39,15,16,15,26,41,17,40,38,29,41,39,38,26,39,40,27,17,39,15,40,41,28,38,26,14,29,26,40,14,29,16,16,41,40,26,39,27,15,16,14,26,28,39,28,41,14,
41,17,15,27,29,39,38,27,17,14,38,38,29,39,39,29,26,41,39,27,17,38,27,26,16,41,38,39,17,15,16,41,27,14,28,39,40,26,27,14,27,29,28,26,15,27,26,16,26,15,14,28,29,40,15,28,38,26,38,41,38,28,16,17,26,40,27,41,15,16,40,38,15,14,39,41,27,39,39,26,
38,26,15,29,27,26,17,40,41,29,16,28,15,41,38,39,16,16,28,14,26,14,29,29,27,26,27,29,27,15,17,28,28,17,27,27,27,39,27,39,28,38,39,17,29,40,38,38,26,38,38,26,27,28,28,14,39,39,26,16,38,15,38,26,38,15,41,16,39,39,17,26,39,16,41,27,29,15,28,29,
40,28,16,38,27,17,40,26,28,29,41,29,28,28,15,29,29,29,28,16,28,14,15,40,26,26,38,17,41,38,16,39,38,41,17,39,17,14,14,14,28,17,40,41,27,39,16,16,16,40,17,15,17,17,28,29,28,27,27,39,29,26,26,27,26,14,28,16,16,15,27,16,14,28,26,26,40,16,16,26,
26,16,17,29,29,29,26,27,17,15,14,40,28,14,38,15,28,14,26,16,28,16,41,15,40,26,28,40,14,26,29,29,40,14,16,28,38,38,27,39,41,38,14,16,26,28,38,29,39,14,16,41,26,16,26,15,28,28,26,38,17,29,41,26,40,40,41,41,27,38,41,14,39,15,39,28,17,16,16,16,
40,14,29,16,17,16,38,39,26,26,38,38,40,40,41,16,16,29,29,39,41,17,40,29,28,41,16,17,14,28,27,40,38,38,14,26,28,28,17,27,16,15,27,14,39,41,41,27,14,27,28,16,15,41,16,41,28,40,17,15,26,28,41,41,17,28,39,40,16,27,26,29,38,15,27,39,40,40,17,15,
14,28,17,39,17,39,15,40,27,15,16,41,16,28,40,41,41,26,38,38,28,28,39,26,15,17,16,28,17,26,28,40,29,29,27,28,16,27,17,17,38,15,28,39,38,15,26,26,29,27,15,28,15,39,39,38,26,14,27,16,38,38,29,38,26,41,28,38,28,17,40,26,39,26,26,38,40,41,17,41,
16,26,27,15,38,38,29,14,38,38,27,29,26,40,41,26,14,39,28,15,17,15,16,41,16,16,27,27,41,29,16,29,29,29,29,27,29,27,26,17,17,28,38,16,29,41,39,16,29,41,15,15,26,17,41,17,39,39,17,15,14,17,26,29,27,27,16,16,41,26,38,38,41,26,14,29,26,26,15,15,
38,39,27,28,38,40,27,28,15,16,29,40,38,27,29,29,17,15,29,15,38,39,16,41,26,17,39,26,14,39,27,38,28,29,14,40,38,28,29,14,38,41,41,27,17,28,39,28,40,40,17,26,27,16,28,26,27,28,26,16,15,15,28,27,17,16,26,40,28,17,39,40,39,17,27,40,26,17,27,29,
39,26,40,41,29,16,40,17,14,41,27,28,26,17,27,28,27,26,27,28,14,40,38,26,39,29,14,17,28,17,39,26,40,17,27,39,26,26,15,16,27,17,14,16,28,41,14,38,26,28,16,40,28,39,27,17,26,29,39,28,41,39,28,17,15,27,39,17,16,16,39,26,39,40,14,38,15,27,28,15,
14,38,28,29,15,38,41,41,26,41,14,14,26,38,29,26,29,15,38,29,15,27,17,28,27,28,28,29,28,14,16,15,26,40,39,26,38,39,38,29,38,38,17,28,39,17,41,27,15,15,40,29,38,28,26,16,40,40,28,28,17,16,17,38,27,41,17,39,28,15,15,41,39,15,38,28,41,27,38,26,
26,39,27,16,39,14,27,27,17,15,28,41,16,15,28,27,15,29,39,38,29,27,40,40,16,17,40,15,38,38,14,16,29,39,14,15,29,17,16,14,40,39,28,26,17,14,39,14,27,29,29,40,39,41,29,41,16,40,29,41,17,27,16,27,41,41,40,29,14,39,28,28,39,26,27,28,40,14,40,26,
16,40,17,17,29,38,26,38,40,40,28,16,27,14,16,14,15,40,14,26,15,16,39,38,26,15,16,27,39,16,28,38,15,38,39,26,15,28,28,26,41,27,14,15,38,29,27,26,28,40,38,17,26,41,15,29,17,38,39,26,15,15,38,26,41,29,28,14,17,40,26,17,16,38,27,29,15,40,17,29,
40,29,39,40,39,17,26,26,16,29,26,41,41,40,15,39,29,38,38,15,38,27,26,41,39,27,29,29,27,26,27,39,29,38,16,28,39,15,29,28,16,27,27,41,40,14,38,29,28,14,16,41,40,27,41,17,28,29,14,28,40,41,29,41,14,38,27,28,41,40,15,26,28,38,27,16,15,15,39,26,
16,14,17,28,16,16,17,17,28,17,28,29,38,14,17,26,41,26,38,27,40,38,16,41,17,39,39,40,28,27,29,16,38,38,16,28,41,26,28,28,15,26,38,26,26,41,38,41,29,40,39,26,40,38,15,38,15,17,39,26,26,26,14,40,27,38,38,16,27,17,26,40,39,14,14,17,29,39,27,40,
26,27,41,27,14,29,16,15,38,39,40,29,40,15,41,29,15,27,26,40,14,15,26,29,39,26,28,14,40,27,17,39,17,26,17,28,38,28,28,17,40,29,28,17,28,40,40,40,27,27,40,39,17,38,17,40,14,29,26,38,16,26,28,41,14,29,15,41,40,40,27,26,29,14,15,28,28,38,28,26,
27,16,16,16,39,29,41,27,17,27,14,38,27,39,40,29,39,41,29,41,15,41,39,14,26,27,16,39,39,41,14,27,39,15,16,26,40,29,40,39,14,39,17,14,27,40,41,38,28,38,15,26,27,16,38,16,17,28,14,16,40,40,41,26,14,26,17,28,38,40,39,39,39,14,40,40,17,14,29,40
  </data>
 </layer>
 <layer id="2" name="Walls" width="80" height="44">
  <data encoding="csv">
2,2,32,2,33,3,32,34,34,33,32,32,3,32,2,33,2,33,33,2,33,2,33,33,33,34,33,33,33,3,33,33,3,3,34,3,33,33,2,33,34,33,34,33,33,32,2,33,33,33,33,2,3,32,33,2,33,33,34,3,32,33,32,3,33,2,33,33,33,2,33,32,33,33,2,32,3,3,33,32,
33,3,33,2,34,3,32,2,34,3,2,32,33,3,2,33,2,33,2,32,33,33,33,33,33,2,33,2,33,33,2,34,33,32,33,33,32,33,3,33,34,32,32,33,3,3,33,2,3,33,33,33,34,34,2,33,2,2,34,32,33,33,33,2,3,34,2,2,33,33,33,33,34,34,33,33,33,3,33,3,
32,2,33,33,33,33,2,33,3,34,3,2,34,34,32,3,33,34,2,32,33,32,32,2,2,32,3,0,0,0,0,0,0,0,3,2,32,2,2,34,32,33,33,33,32,34,33,33,3,33,2,3,33,33,33,3,33,34,3,33,33,32,33,32,34,0,0,0,0,0,0,0,0,0,0,32,32,34,32,33,
2,34,0,0,0,0,0,0,0,0,0,0,0,33,33,33,33,2,3,2,2,32,34,2,33,2,34,0,0,0,0,0,0,0,3,2,33,32,33,32,34,33,33,33,3,33,33,3,0,0,0,0,0,0,33,33,2,2,3,33,32,34,33,32,3,0,0,0,0,0,0,0,0,0,0,34,33,33,2,3,
33,33,0,0,0,0,0,0,0,0,0,0,0,34,34,33,2,32,3,2,34,32,32,3,33,34,32,0,0,0,0,0,0,0,33,34,3,2,33,33,3,34,33,32,34,32,2,34,0,0,0,0,0,0,3,32,33,33,3,2,3,33,33,33,33,0,0,0,0,0,0,0,0,0,0,33,3,33,33,34,
2,3,0,0,0,0,0,0,0,0,0,0,0,33,32,32,3,33,2,34,2,34,2,33,33,33,34,0,0,0,0,0,0,0,33,34,33,2,34,2,34,34,34,34,32,33,2,3,0,0,0,0,0,0,2,32,33,2,33,33,34,33,2,33,3,0,0,0,0,0,0,0,0,0,0,2,33,33,3,34,
33,3,0,0,0,0,0,0,0,0,0,0,0,0,0,0,0,0,0,0,0,0,0,0,0,0,0,0,0,0,0,0,0,0,3,33,2,3,3,3,33,2,2,33,32,32,33,3,0,0,0,0,0,0,0,0,0,0,0,0,0,0,0,0,0,0,0,0,0,0,0,33,33,2,34,2,32,3,3,33,
33,33,0,0,0,0,0,0,0,0,0,0,0,0,0,0,0,0,0,0,0,0,0,0,0,0,0,0,0,0,0,0,0,0,3,2,33,34,33,3,33,33,33,34,3,2,2,32,0,0,0,0,0,0,34,32,3,33,33,33,33,33,2,33,33,33,32,33,3,32,33,3,33,33,33,33,33,33,34,33,
33,33,0,0,0,0,0,0,0,0,0,0,0,34,32,3,2,3,33,2,33,2,34,34,33,32,33,32,33,2,0,0,34,3,33,2,33,2,33,33,33,3,32,33,33,33,33,34,0,0,0,0,0,0,2,3,33,34,3,2,33,34,32,32,33,33,2,33,3,33,3,34,3,2,34,33,33,33,33,3,
34,33,34,33,32,3,3,33,33,33,2,33,3,33,32,33,34,3,32,3,34,33,3,3,34,34,33,3,33,33,0,0,2,32,33,32,33,3,32,33,3,2,34,33,33,33,33,33,3,32,33,0,33,33,33,33,32,33,33,32,33,33,34,33,2,2,33,33,32,32,2,33,33,34,33,2,32,2,34,34,
33,2,33,3,34,33,33,2,33,33,33,2,32,32,33,33,33,33,32,2,2,3,2,33,33,33,3,33,33,32,0,0,34,32,3,32,32,32,3,2,34,2,2,33,34,32,3,2,33,33,34,0,2,33,32,33,33,34,2,33,3,33,34,33,33,33,34,33,2,33,3,3,33,3,32,34,2,32,3,34,
33,32,33,34,33,3,33,3,3,33,33,34,33,33,2,33,33,33,33,33,34,2,33,33,2,33,3,3,3,32,0,0,34,32,33,2,2,3,33,33,34,32,33,3,34,33,3,2,3,33,3,0,33,33,33,33,33,3,33,34,33,32,33,3,33,33,34,2,3,33,33,3,34,33,33,32,33,33,34,2,
3,33,33,33,32,2,33,34,33,33,33,2,33,33,34,2,33,2,34,34,3,2,3,33,33,3,34,32,2,3,0,0,33,32,33,32,32,2,3,3,33,33,3,34,32,32,33,33,33,33,33,0,32,33,32,2,32,32,32,33,32,33,33,33,33,33,33,33,32,2,3,33,2,3,33,33,32,2,32,33,
33,34,2,2,2,33,34,33,2,3,33,2,34,3,34,34,33,33,33,32,33,33,2,0,0,0,0,0,0,0,0,0,0,0,0,0,33,32,3,33,32,32,3,0,0,0,0,0,0,0,0,0,32,3,33,33,2,34,33,3,33,33,33,2,3,33,2,33,34,33,2,32,33,33,34,34,33,33,33,33,
32,34,0,0,0,0,0,0,0,0,0,0,0,0,0,0,0,0,2,33,2,32,33,0,0,0,0,0,0,0,0,0,0,0,0,0,3,33,2,34,2,34,3,0,0,0,0,0,0,0,0,0,32,33,33,2,33,33,2,33,32,2,32,34,33,32,32,0,0,0,0,0,0,0,0,3,33,33,2,33,
2,32,0,0,0,0,0,0,0,0,0,0,0,0,0,0,0,0,2,33,33,32,2,0,0,0,0,0,0,0,0,0,0,0,0,0,0,0,0,0,0,0,0,0,0,0,0,0,0,0,0,0,33,32,33,33,2,33,34,2,33,32,2,2,33,32,2,0,0,0,0,0,0,0,0,33,33,33,34,34,
33,3,0,0,0,0,0,0,0,0,0,0,0,0,0,0,0,0,0,0,0,0,0,0,0,0,0,0,0,0,0,0,0,0,0,0,33,34,32,3,33,33,33,0,0,0,0,0,0,0,0,0,0,0,0,0,0,0,0,0,0,0,0,0,0,0,0,0,0,0,0,0,0,0,0,33,32,33,2,3,
33,2,0,0,0,0,0,0,0,0,0,0,0,0,0,0,0,0,32,32,33,33,33,0,0,0,0,0,0,0,0,0,0,0,0,0,3,2,32,34,3,33,34,0,0,0,0,0,0,0,0,0,0,0,0,0,0,0,0,0,0,0,0,0,0,0,0,0,0,0,0,0,0,0,0,32,34,33,2,33,
34,32,33,34,33,3,34,33,33,33,33,34,3,34,3,3,2,3,34,2,33,33,33,34,32,34,33,3,33,0,2,33,33,3,34,33,33,33,32,33,33,33,33,0,0,0,0,0,0,0,0,33,3,33,3,34,3,32,2,3,34,34,33,32,3,33,3,0,0,0,0,0,0,0,0,3,2,33,33,33,
33,33,32,34,2,2,3,34,3,34,33,33,3,32,33,2,33,33,34,3,32,3,33,33,34,32,33,34,33,0,33,33,32,33,2,3,33,3,33,3,32,33,32,33,2,2,33,0,33,33,33,33,33,3,33,2,33,33,33,2,33,2,33,33,34,3,33,33,2,33,33,2,33,32,33,34,33,33,33,2,
33,33,33,3,34,34,32,33,33,34,34,2,33,33,3,32,33,2,33,2,33,33,33,33,33,33,3,32,32,0,2,3,33,3,3,34,33,3,3,33,33,34,2,34,33,33,2,0,2,33,32,33,33,33,3,33,3,33,33,33,34,2,34,2,33,34,2,3,33,34,33,34,33,32,33,33,34,33,32,33,
34,32,34,2,34,34,33,3,33,33,32,34,32,33,33,33,33,32,34,33,33,3,34,3,34,33,2,33,33,0,3,33,33,32,3,33,33,32,3,33,33,33,32,34,34,2,33,0,33,2,33,32,33,3,32,33,34,2,33,32,33,2,34,33,34,34,32,33,33,34,33,34,33,34,33,33,32,33,33,3,
33,3,33,3,32,2,33,33,34,33,32,33,34,33,3,2,34,33,33,33,34,33,33,34,3,32,33,33,33,0,34,33,3,34,2,33,33,3,34,32,3,3,3,33,34,33,33,0,33,33,2,33,34,2,33,2,33,33,32,33,34,34,33,33,33,33,33,3,3,34,33,33,3,34,2,32,33,33,2,33,
33,32,33,33,32,3,2,32,33,33,34,33,3,2,33,33,33,3,33,33,33,33,33,33,33,33,34,34,33,0,33,32,34,33,33,3,34,33,33,32,3,3,2,33,2,2,32,0,33,2,33,33,3,3,33,33,33,33,33,33,33,33,33,32,3,2,3,32,33,32,34,33,2,32,34,32,34,33,3,33,
33,3,0,0,0,0,0,0,0,0,0,0,0,0,0,0,33,33,33,34,33,34,3,2,2,3,33,0,0,0,0,0,0,0,0,0,0,2,33,33,32,33,33,33,3,3,0,0,0,0,0,0,0,0,0,0,0,33,34,3,3,2,2,34,3,33,0,0,0,0,0,0,0,0,0,3,34,33,2,3,
34,2,0,0,0,0,0,0,0,0,0,0,0,0,0,0,3,33,33,2,33,3,33,34,2,33,32,0,0,0,0,0,0,0,0,0,0,3,3,33,32,34,2,33,33,33,0,0,0,0,0,0,0,0,0,0,0,34,33,33,33,33,33,34,2,32,0,0,0,0,0,0,0,0,0,32,33,32,34,2,
33,33,0,0,0,0,0,0,0,0,0,0,0,0,0,0,2,33,2,3,33,2,33,33,32,34,32,0,0,0,0,0,0,0,0,0,0,3,33,33,34,34,32,33,33,34,0,0,0,0,0,0,0,0,0,0,0,33,3,3,34,33,2,3,33,33,0,0,0,0,0,0,0,0,0,34,2,32,2,32,
33,34,0,0,0,0,0,0,0,0,0,0,0,0,0,0,0,0,0,0,0,0,0,0,0,0,0,0,0,0,0,0,0,0,0,0,0,34,33,33,3,3,32,2,2,3,0,0,0,0,0,0,0,0,0,0,0,0,0,0,0,0,0,0,0,0,0,0,0,0,0,0,0,0,0,33,33,34,2,2,
33,33,0,0,0,0,0,0,0,0,0,0,0,0,0,0,2,33,33,33,2,3,3,33,33,3,2,0,0,0,0,0,0,0,0,0,0,34,34,33,33,32,33,33,32,2,0,0,0,0,0,0,0,0,0,0,0,0,0,0,0,0,0,0,0,0,0,0,0,0,0,0,0,0,0,33,34,33,34,33,
2,3,0,0,0,0,0,0,0,0,0,0,0,0,0,0,33,33,2,34,2,2,33,34,33,32,32,0,0,0,0,0,0,0,0,0,0,2,32,3,34,3,3,34,3,33,0,0,0,0,0,0,0,0,0,0,0,3,32,32,32,34,33,33,3,3,0,0,0,0,0,0,0,0,0,2,33,32,33,33,
2,33,2,33,3,33,2,33,2,0,34,3,33,33,33,33,33,2,34,33,33,32,32,33,34,33,2,0,0,0,0,0,0,0,0,0,0,34,33,32,33,33,3,2,34,33,0,0,0,0,0,0,0,0,0,0,0,33,33,34,33,32,33,32,33,33,2,33,32,3,34,2,33,3,34,33,33,33,3,3,
32,32,33,33,3,33,33,33,33,0,32,33,32,33,3,33,2,34,34,32,32,3,2,2,32,33,2,33,2,34,33,33,33,33,32,2,33,3,33,32,2,33,2,32,34,33,34,32,33,2,3,0,33,32,34,33,33,3,34,2,33,34,33,3,3,33,32,33,33,2,32,32,33,3,33,3,32,34,33,33,
33,34,2,3,33,2,33,32,2,0,33,3,33,33,32,33,33,33,2,33,34,33,2,3,33,33,2,33,32,34,2,33,33,33,32,33,2,33,3,3,33,3,33,33,33,34,32,33,33,33,34,0,33,34,33,34,32,33,2,33,32,32,32,2,33,33,33,2,3,33,33,3,3,3,33,3,33,32,32,33,
2,34,2,33,33,33,34,3,3,0,33,3,3,2,3,33,34,3,33,33,3,34,3,2,33,33,2,3,33,2,32,3,33,3,33,3,33,32,33,33,33,2,2,33,2,34,33,33,33,32,34,0,34,33,3,34,33,2,33,32,33,33,3,33,33,2,33,33,33,34,33,33,33,34,3,33,34,33,32,32,
3,33,33,34,32,33,33,3,34,0,33,33,33,3,32,2,33,3,33,3,33,32,2,33,33,2,33,33,33,33,33,2,34,33,33,34,32,33,34,33,32,2,33,33,33,33,33,3,33,3,33,0,32,33,2,32,32,32,3,34,33,33,34,34,33,32,33,32,2,33,32,32,33,3,33,32,33,33,2,32,
33,32,33,33,0,0,0,0,0,0,0,0,3,33,34,34,33,2,33,32,34,32,33,33,33,33,34,33,2,3,33,34,32,33,33,2,33,32,33,33,32,2,32,33,32,33,34,33,32,32,33,0,0,0,0,0,0,32,34,33,32,3,34,34,33,33,0,0,0,0,0,0,0,0,0,0,0,0,2,34,
33,33,2,34,0,0,0,0,0,0,0,0,33,2,33,33,3,32,32,34,32,32,32,33,32,32,33,0,0,0,0,0,0,0,0,0,0,3,3,2,33,3,3,34,33,33,33,33,3,33,32,0,0,0,0,0,0,34,3,2,33,33,33,33,34,33,0,0,0,0,0,0,0,0,0,0,0,0,33,34,
2,2,33,33,0,0,0,0,0,0,0,0,34,3,33,33,33,33,33,34,2,33,2,3,34,34,33,0,0,0,0,0,0,0,0,0,0,3,34,3,33,34,33,33,32,33,33,33,32,32,2,0,0,0,0,0,0,34,33,33,3,33,2,34,3,32,0,0,0,0,0,0,0,0,0,0,0,0,33,33,
3,2,33,33,0,0,0,0,0,0,0,0,0,0,0,0,0,0,0,0,0,0,0,0,0,0,0,0,0,0,0,0,0,0,0,0,0,33,33,33,34,2,34,3,33,33,3,34,34,2,33,0,0,0,0,0,0,0,0,0,0,0,0,0,0,0,0,0,0,0,0,0,0,0,0,0,0,0,33,33,
2,32,2,32,0,0,0,0,0,0,0,0,2,33,32,3,3,3,3,2,33,34,32,33,34,34,2,0,0,0,0,0,0,0,0,0,0,0,0,0,0,0,0,0,0,0,0,0,0,0,0,0,0,0,0,0,0,0,0,0,0,0,0,0,0,0,0,0,0,0,0,0,0,0,0,0,0,0,32,2,
2,34,2,34,0,0,0,0,0,0,0,0,33,34,33,32,2,2,32,3,34,34,33,33,34,3,2,0,0,0,0,0,0,0,0,0,0,0,0,0,0,0,0,0,0,0,0,0,0,0,0,0,0,0,0,0,0,33,33,33,33,33,3,2,34,2,2,34,33,33,3,33,33,33,33,33,33,33,33,32,
32,33,33,3,2,2,33,2,33,3,32,33,33,34,2,32,2,33,32,32,32,2,33,34,33,3,3,0,0,0,0,0,0,0,0,0,0,32,2,34,33,33,33,3,33,2,34,32,32,33,33,0,0,0,0,0,0,32,33,32,3,2,34,3,34,33,33,33,33,2,2,33,33,34,33,33,33,3,33,33,
32,34,34,33,33,33,33,3,33,32,3,3,34,33,3,33,33,32,3,33,33,33,33,2,3,33,2,33,3,34,33,33,3,32,33,3,32,32,32,33,33,32,33,34,34,33,34,2,2,33,34,3,34,33,33,33,2,34,3,34,33,2,3,34,33,33,33,34,33,33,33,32,3,33,33,3,32,33,33,32,
2,33,33,3,3,33,2,33,33,3,33,3,3,3,33,2,33,3,3,2,3,33,33,34,34,3,32,33,32,2,33,33,33,34,33,34,3,3,33,32,33,33,33,33,34,34,2,2,33,3,32,33,33,33,34,33,2,33,33,3,3,32,3,3,3,33,32,33,34,33,33,32,2,33,2,33,33,33,32,3
  </data>
 </layer>
 <objectgroup id="10" name="Spawn">
  <object id="1" name="spawn" class="spawn" type="spawn" x="256" y="1216" width="32" height="32"/>
 </objectgroup>
 <objectgroup id="11" name="Exit">
  <object id="2" name="exit" class="exit" type="exit" x="2240" y="64" width="32" height="32"/>
 </objectgroup>
 <objectgroup id="12" name="Doors">
  <object id="3" name="door_key" class="door_key" type="door_key" x="1504" y="672" width="32" height="32">
   <properties>
    <property name="door_id" type="string" value="key_door_1"/>
    <property name="key_id" type="string" value="key_1"/>
    <property name="passage" type="string" value="vertical"/>
   </properties>
  </object>
  <object id="4" name="door_plate" class="door_plate" type="door_plate" x="2016" y="192" width="32" height="32">
   <properties>
    <property name="door_id" type="string" value="plate_door_1"/>
    <property name="plate_id" type="string" value="plate_1"/>
    <property name="passage" type="string" value="horizontal"/>
   </properties>
  </object>
 </objectgroup>
 <objectgroup id="13" name="PressurePlates">
  <object id="5" name="pressure_plate" class="pressure_plate" type="pressure_plate" x="1888" y="192" width="32" height="32">
   <properties>
    <property name="plate_id" type="string" value="plate_1"/>
    <property name="door_id" type="string" value="plate_door_1"/>
   </properties>
  </object>
 </objectgroup>
 <objectgroup id="14" name="Traps">
  <object id="6" name="spike" class="spike" type="spike" x="1408" y="1248" width="32" height="32"/>
  <object id="7" name="spike" class="spike" type="spike" x="1440" y="1248" width="32" height="32"/>
  <object id="8" name="archer" class="archer" type="archer" x="1472" y="864" width="32" height="32">
   <properties>
    <property name="direction" type="string" value="right"/>
    <property name="interval" type="float" value="0.3"/>
    <property name="speed" type="float" value="330.0"/>
   </properties>
  </object>
 </objectgroup>
 <objectgroup id="15" name="Items">
  <object id="999" name="shield" class="shield" type="shield" x="352" y="1216" width="32" height="32"/>

  <object id="9" name="vial" class="vial" type="vial" x="320" y="1216" width="32" height="32">
   <properties>
    <property name="unique" type="bool" value="true"/>
   </properties>
  </object>
  <object id="10" name="npc" class="npc" type="npc" x="96" y="224" width="32" height="32">
   <properties>
    <property name="key_id" type="string" value="key_1"/>
    <property name="wants_item" type="string" value="shield"/>
    <property name="lines" type="string" value="Rends-moi mon bouclier...|J'en ai absolument besoin !"/>
   </properties>
  </object>
  <object id="11" name="torch" class="torch" type="torch" x="448" y="1216" width="32" height="32"/>
  <object id="12" name="torch" class="torch" type="torch" x="608" y="1216" width="32" height="32"/>
  <object id="13" name="torch" class="torch" type="torch" x="768" y="1216" width="32" height="32"/>
  <object id="14" name="torch" class="torch" type="torch" x="1248" y="1248" width="32" height="32"/>
  <object id="15" name="torch" class="torch" type="torch" x="1568" y="1248" width="32" height="32"/>
  <object id="16" name="torch" class="torch" type="torch" x="1632" y="1056" width="32" height="32"/>
  <object id="17" name="torch" class="torch" type="torch" x="1632" y="352" width="32" height="32"/>
  <object id="18" name="torch" class="torch" type="torch" x="1632" y="512" width="32" height="32"/>
  <object id="19" name="torch" class="torch" type="torch" x="1792" y="192" width="32" height="32"/>
  <object id="20" name="torch" class="torch" type="torch" x="1952" y="192" width="32" height="32"/>
  <object id="21" name="torch" class="torch" type="torch" x="2112" y="192" width="32" height="32"/>
  <object id="22" name="torch" class="torch" type="torch" x="2240" y="192" width="32" height="32"/>
  <object id="23" name="torch" class="torch" type="torch" x="160" y="1152" width="32" height="32"/>
  <object id="24" name="torch" class="torch" type="torch" x="320" y="1248" width="32" height="32"/>
  <object id="25" name="torch" class="torch" type="torch" x="896" y="1184" width="32" height="32"/>
  <object id="26" name="torch" class="torch" type="torch" x="1120" y="1280" width="32" height="32"/>
  <object id="27" name="torch" class="torch" type="torch" x="1664" y="1152" width="32" height="32"/>
  <object id="28" name="torch" class="torch" type="torch" x="1760" y="1280" width="32" height="32"/>
  <object id="29" name="torch" class="torch" type="torch" x="1504" y="800" width="32" height="32"/>
  <object id="30" name="torch" class="torch" type="torch" x="1760" y="928" width="32" height="32"/>
  <object id="31" name="torch" class="torch" type="torch" x="1408" y="448" width="32" height="32"/>
  <object id="32" name="torch" class="torch" type="torch" x="1568" y="544" width="32" height="32"/>
  <object id="33" name="torch" class="torch" type="torch" x="1568" y="128" width="32" height="32"/>
  <object id="34" name="torch" class="torch" type="torch" x="1664" y="224" width="32" height="32"/>
  <object id="35" name="torch" class="torch" type="torch" x="2112" y="96" width="32" height="32"/>
  <object id="36" name="torch" class="torch" type="torch" x="2336" y="128" width="32" height="32"/>
 </objectgroup>
 <objectgroup id="16" name="NPCs">
 </objectgroup>
</map>
