<?xml version="1.0" encoding="UTF-8"?>
<map version="1.10" tiledversion="1.12.2" orientation="orthogonal" renderorder="right-down" width="80" height="40" tilewidth="32" tileheight="32" infinite="0" nextlayerid="5" nextobjectid="102">
 <tileset firstgid="1" source="assets/Tilset_Dungeon.tsx"/>
 <tileset firstgid="109" source="assets/Items_Static.tsx"/>
 <layer id="1" name="Base_layer" width="80" height="40">
  <data encoding="csv">
0,0,0,0,0,0,0,0,0,0,0,0,0,0,0,0,0,0,0,0,0,0,0,0,0,0,0,0,0,0,0,0,0,0,0,0,0,0,0,0,0,0,0,0,0,0,0,0,0,0,0,0,0,0,0,0,0,0,0,0,0,0,0,0,0,0,0,0,0,0,0,0,0,0,0,29,14,40,29,38,
0,28,27,0,0,0,0,38,15,41,39,39,39,29,39,16,0,0,0,40,28,14,15,41,29,14,27,16,39,0,0,0,0,0,0,0,0,0,0,0,0,0,0,0,0,0,0,0,0,0,0,0,27,14,14,38,38,38,41,39,39,14,0,0,0,0,0,0,0,0,38,38,0,0,0,41,14,16,38,14,
0,39,41,0,0,0,0,38,16,15,15,26,29,29,29,17,0,0,0,17,14,40,38,40,15,26,41,26,17,0,0,0,0,0,17,28,15,27,41,28,16,38,14,26,26,40,15,38,39,15,15,16,40,26,39,41,28,38,17,38,17,41,28,16,40,17,28,41,0,0,39,15,0,0,0,41,39,40,28,39,
0,38,38,0,0,0,0,29,17,0,0,0,0,0,28,27,0,0,0,16,41,0,0,0,0,0,0,28,39,0,0,0,0,0,41,38,28,28,28,39,29,15,16,27,27,27,28,17,15,14,15,38,17,14,29,39,26,17,28,41,28,16,17,29,14,40,27,39,0,0,40,41,0,0,0,14,17,14,28,28,
0,26,38,0,39,41,26,15,16,29,40,26,0,0,28,28,0,0,0,26,40,0,0,0,26,38,39,41,29,15,28,26,0,0,38,41,0,0,0,0,38,29,0,0,38,38,0,0,0,0,0,0,16,40,16,29,15,17,26,41,14,26,0,0,0,0,27,15,0,0,17,40,0,0,0,26,41,26,14,38,
0,28,38,0,40,39,26,14,14,38,15,14,0,0,41,29,0,0,0,38,41,0,0,0,27,16,16,41,15,39,38,28,14,15,27,15,0,0,0,0,26,14,0,0,26,16,0,0,0,0,0,0,0,0,41,40,0,0,0,0,0,0,0,0,0,0,28,14,0,0,26,29,0,0,0,0,0,27,28,0,
0,40,27,0,28,14,28,29,14,15,29,40,0,0,38,38,15,39,40,14,38,0,0,0,38,38,14,38,15,41,29,39,39,29,27,17,0,0,0,0,26,17,0,0,16,15,0,0,0,0,0,0,0,0,15,16,0,0,0,0,0,0,0,0,0,0,15,16,0,0,26,14,0,0,0,0,0,17,26,0,
0,28,39,0,15,14,29,26,38,39,16,28,0,0,39,38,41,28,17,41,41,0,0,0,41,27,29,15,28,27,39,29,0,0,14,16,0,0,0,0,16,29,17,17,29,39,0,0,0,0,0,0,0,0,15,40,0,0,0,0,0,0,0,0,0,0,15,27,0,0,14,14,0,0,0,0,0,38,38,0,
0,28,38,0,27,40,0,0,0,0,0,0,0,0,28,40,0,0,0,29,17,0,0,0,14,29,38,14,29,40,14,27,0,0,14,41,0,0,0,0,17,40,15,16,26,15,0,0,0,0,0,0,28,41,41,16,26,27,0,0,0,0,0,0,0,0,17,28,0,0,29,14,0,0,0,0,0,40,26,0,
0,40,16,0,14,38,0,0,0,0,0,0,0,0,17,27,0,0,0,28,15,0,0,0,0,0,0,0,0,0,0,0,0,40,26,28,0,0,0,0,0,0,0,0,0,0,0,0,0,0,0,0,17,28,17,41,16,38,0,0,0,0,0,0,0,0,15,40,27,26,16,41,39,15,28,26,29,40,15,0,
0,28,16,28,14,15,17,27,14,40,27,15,16,16,15,39,0,0,0,16,28,0,0,0,0,0,0,0,0,0,0,0,0,38,40,41,0,0,0,0,38,38,38,39,39,17,26,29,15,14,0,0,40,16,16,16,26,29,0,0,0,0,0,0,0,0,15,28,28,16,40,14,29,26,27,39,16,40,41,0,
0,41,14,16,40,17,29,39,28,41,38,14,15,14,41,27,0,0,0,16,28,0,0,0,0,0,0,0,0,0,0,0,0,38,16,0,0,0,0,0,38,17,39,16,39,38,38,26,16,29,0,0,14,29,14,17,40,16,0,0,0,0,0,0,0,0,0,0,0,0,0,0,0,14,41,0,0,0,0,0,
0,0,26,16,0,0,0,0,0,0,0,0,0,0,0,0,0,0,0,28,29,0,0,0,0,0,0,0,0,0,0,0,0,41,17,0,0,0,0,0,17,29,28,40,15,14,38,16,27,16,0,0,41,15,16,15,27,26,0,0,0,0,0,0,0,0,0,0,0,0,0,0,0,41,38,0,0,0,0,0,
0,0,28,27,0,0,0,0,0,0,0,0,0,0,0,0,0,0,0,40,40,0,0,0,0,0,0,0,0,0,0,0,0,26,17,14,41,16,14,0,28,16,39,39,28,38,38,28,38,27,0,0,0,0,17,27,0,0,0,0,0,0,0,0,0,0,0,0,26,28,28,15,26,29,41,0,0,0,0,0,
0,0,15,27,0,0,0,0,0,0,0,0,0,0,0,0,0,0,0,38,26,0,0,0,0,0,0,0,0,0,0,0,0,40,26,26,38,16,39,0,39,14,14,17,40,28,17,17,39,39,0,0,0,0,39,14,0,0,0,0,0,0,0,0,0,0,0,0,41,26,40,17,40,15,39,0,0,0,0,0,
0,0,17,27,0,0,0,0,0,0,0,0,0,0,0,0,0,0,0,15,29,0,0,0,0,0,0,0,0,0,0,0,0,27,27,0,0,40,39,0,0,0,0,28,39,0,0,0,0,0,0,0,0,0,17,39,0,0,39,40,40,40,14,41,38,28,26,17,26,16,40,26,17,16,14,0,0,0,0,0,
0,0,29,15,28,16,29,14,14,38,26,40,40,29,0,0,0,0,0,28,14,40,29,14,27,38,38,27,29,14,0,0,0,41,27,0,0,16,15,0,0,0,0,39,14,0,0,0,17,40,0,0,0,0,39,26,0,0,41,14,28,27,29,39,27,39,38,14,40,29,14,39,38,28,38,0,0,0,0,0,
0,0,40,28,28,15,41,15,29,26,27,17,15,16,0,0,0,0,0,27,27,17,40,38,28,29,38,27,17,38,41,39,15,16,39,0,0,14,28,0,0,0,0,17,29,0,0,0,41,27,0,0,0,0,39,29,0,0,17,38,0,0,0,0,0,0,0,0,17,15,41,28,39,40,41,0,0,0,0,0,
0,0,38,26,0,0,0,0,0,0,0,0,16,29,0,0,0,0,0,14,15,40,17,40,41,15,17,14,17,14,26,40,16,14,39,0,0,26,27,0,0,0,0,17,38,0,0,0,29,28,0,0,0,0,26,26,38,41,28,16,0,0,0,0,0,0,0,0,38,16,14,14,16,14,41,0,0,0,0,0,
0,0,29,15,0,0,0,0,0,0,0,0,39,15,15,38,28,17,0,17,26,17,40,28,28,28,41,38,40,38,0,0,0,28,26,0,0,15,40,39,40,16,28,28,39,15,27,26,38,15,29,40,17,29,16,28,38,29,26,17,0,0,0,0,0,0,0,0,29,29,14,16,28,14,40,0,0,0,0,0,
0,0,14,17,0,0,0,0,0,0,0,0,17,40,28,14,28,38,0,27,29,17,40,16,26,41,14,28,15,14,0,0,0,38,27,0,0,38,16,40,40,17,27,41,40,27,17,16,41,14,15,15,16,17,39,17,0,0,17,38,0,0,0,0,0,0,0,0,0,0,41,15,0,0,0,0,0,0,0,0,
0,0,17,28,0,0,0,0,0,0,0,0,0,0,0,0,0,0,0,29,40,38,14,16,41,27,16,41,14,28,0,0,0,38,16,0,0,0,0,0,0,0,0,0,0,0,0,0,0,0,0,0,0,0,40,41,0,0,41,28,16,41,39,15,0,0,0,0,0,0,15,40,0,0,0,0,0,0,0,0,
0,0,16,26,0,0,0,0,0,0,0,0,0,0,0,0,0,0,0,0,15,15,0,0,0,0,0,0,0,0,0,0,0,38,40,0,0,0,0,0,0,0,0,0,0,0,0,0,0,0,0,0,0,0,28,14,0,0,28,29,26,14,39,16,0,0,0,0,0,0,27,28,0,0,0,0,0,0,0,0,
17,40,40,27,39,27,27,28,29,0,0,0,0,0,0,0,0,0,0,0,41,17,0,0,0,28,39,28,38,28,16,0,0,40,15,39,17,15,40,41,39,16,39,38,0,0,0,0,0,0,0,0,0,0,27,16,0,0,0,0,0,0,40,27,0,0,0,0,0,0,29,29,0,0,0,0,0,0,0,0,
28,14,41,15,41,40,15,39,15,26,41,41,40,40,38,29,26,27,15,27,15,15,0,0,0,39,38,40,28,40,40,0,0,40,41,39,14,39,28,15,26,41,29,39,0,0,0,0,27,14,0,0,0,0,41,28,0,0,0,0,0,0,40,26,0,0,0,0,0,0,38,16,0,0,0,0,0,0,0,0,
38,17,15,39,38,14,41,39,41,14,15,27,14,26,40,14,41,14,26,14,41,26,0,0,0,27,14,39,14,40,28,0,0,41,41,0,0,0,0,0,0,0,38,40,0,0,0,0,41,16,0,0,0,0,26,26,0,0,0,0,0,0,38,26,0,0,0,0,0,0,29,27,0,0,0,0,0,0,0,0,
38,17,41,39,26,39,17,15,28,0,0,0,0,0,0,0,0,0,0,0,39,15,14,17,41,16,27,26,38,39,40,0,0,39,40,0,0,0,0,0,0,0,39,38,0,0,0,0,17,28,0,0,0,0,40,14,0,0,0,0,0,0,17,14,0,0,0,0,0,0,41,27,0,0,0,0,0,0,0,0,
0,0,40,40,0,0,0,0,0,0,0,0,0,0,0,0,0,0,0,0,28,38,38,27,15,17,38,38,29,28,28,0,0,28,17,0,0,0,0,0,0,0,28,26,0,0,0,0,27,40,0,0,0,0,41,38,0,0,0,0,0,0,28,40,26,29,14,15,17,29,41,14,28,27,28,41,38,15,38,0,
0,0,26,28,0,0,0,0,0,0,0,0,0,0,0,0,0,0,0,0,15,40,0,0,0,29,41,14,15,40,41,0,0,27,16,0,0,16,14,27,38,38,15,38,14,0,0,0,40,17,0,0,0,0,17,29,0,0,0,0,0,0,38,26,41,26,17,39,17,29,40,41,41,40,14,15,41,14,41,0,
0,0,29,38,0,0,0,0,0,0,0,0,0,0,0,0,0,0,0,0,15,29,0,0,0,0,0,0,0,0,0,0,0,40,17,0,0,17,28,29,15,27,29,16,29,26,29,14,27,38,14,40,40,15,29,26,28,16,15,28,17,38,15,16,0,0,0,0,0,0,28,16,0,0,0,0,0,39,38,0,
0,0,40,17,0,0,0,0,0,0,0,0,0,0,0,0,0,0,0,0,38,40,0,0,0,0,0,0,0,0,0,0,0,27,29,0,0,40,29,14,38,15,38,27,39,39,29,26,14,14,17,16,27,26,41,40,26,29,15,17,17,38,29,14,0,0,0,0,0,0,17,38,0,0,0,0,0,27,14,0,
0,0,27,26,0,0,0,14,15,38,17,27,0,0,0,0,0,0,0,39,39,26,27,14,15,39,16,17,14,15,14,0,0,26,27,0,0,27,38,28,27,41,40,39,38,0,0,0,0,0,0,15,41,0,0,0,0,0,0,0,0,0,0,0,0,0,0,0,0,0,39,39,0,0,0,0,0,28,26,0,
0,0,29,39,16,17,39,41,29,41,39,27,0,0,0,0,0,0,0,28,29,14,39,28,14,16,40,16,41,16,27,40,40,26,41,0,0,26,16,38,16,29,40,14,39,0,39,39,0,0,0,41,38,0,0,0,0,0,0,0,0,0,0,0,0,0,0,0,0,0,16,41,0,0,0,0,0,28,39,0,
0,0,38,41,15,40,40,39,28,38,26,27,0,0,0,0,0,0,0,15,17,16,15,41,17,16,17,28,28,14,41,41,17,28,16,0,0,0,0,0,0,0,0,0,0,0,28,16,0,0,0,16,28,0,0,0,0,0,0,0,0,0,0,0,0,0,0,0,0,0,16,40,0,0,0,0,0,38,17,0,
0,0,16,39,0,0,0,39,17,29,39,27,0,0,0,0,0,0,0,15,17,39,39,40,27,15,28,27,38,41,29,0,0,0,0,0,0,0,0,0,0,0,0,0,0,0,29,15,28,17,16,16,26,28,38,15,40,40,15,28,26,38,39,0,0,40,38,38,14,17,26,39,15,38,14,0,0,28,40,0,
0,0,28,14,0,0,0,0,0,0,0,0,0,0,0,0,0,0,0,0,0,0,40,41,0,0,0,0,0,0,0,0,0,0,0,0,0,0,0,0,0,0,0,0,0,0,40,27,40,14,40,27,38,26,17,27,16,41,17,39,38,39,28,0,0,29,17,15,14,29,39,28,38,16,16,0,0,28,39,0,
0,0,38,14,0,0,0,0,0,0,0,0,0,0,0,0,0,0,0,0,0,0,17,39,0,0,0,0,0,0,0,0,0,0,0,0,0,0,0,0,0,0,0,0,0,0,38,16,0,0,0,0,0,0,0,0,38,15,0,0,0,28,38,0,0,14,14,27,14,16,39,41,26,27,40,0,0,17,29,0,
15,27,14,39,38,29,14,27,40,14,41,16,15,38,15,38,41,28,41,40,39,28,39,38,17,17,26,39,14,27,39,17,41,39,40,26,17,41,39,29,17,14,38,28,29,27,29,15,0,0,0,39,29,14,17,17,16,14,0,0,0,16,29,39,28,39,27,26,16,16,27,17,27,26,26,40,15,15,14,0,
14,41,40,14,41,29,38,41,28,16,28,15,17,40,29,28,39,41,14,15,26,26,26,26,27,38,15,39,27,39,40,27,41,38,16,16,40,29,41,40,41,27,15,28,27,26,15,41,0,0,0,17,29,26,26,29,39,41,0,0,0,16,29,39,38,16,38,14,28,14,40,26,38,40,38,27,29,15,38,0,
40,40,15,17,26,0,0,0,0,0,0,0,0,0,0,0,0,0,0,0,0,0,0,0,0,0,0,0,0,0,0,0,0,0,0,0,0,0,0,0,0,0,0,0,0,0,0,0,0,0,0,0,0,0,0,0,0,0,0,0,0,0,0,0,0,0,0,0,0,0,0,0,0,0,0,0,0,0,0,0
</data>
 </layer>
 <layer id="2" name="Walls_layer" width="80" height="40">
  <data encoding="csv">
13,3,4,42,20,20,13,3,4,3,2,2,3,2,2,2,6,20,37,2,2,2,4,3,4,4,4,3,2,30,20,20,20,20,20,20,20,20,20,20,20,20,20,20,20,20,20,20,20,20,20,13,4,4,3,5,3,3,3,3,3,3,6,20,20,20,20,20,20,1,2,5,30,20,25,3,2,2,5,42,
37,0,0,18,20,20,13,0,0,0,0,0,0,0,0,0,30,20,13,0,0,0,0,0,0,0,0,0,0,6,20,20,20,1,3,3,3,2,3,5,2,3,4,4,2,4,3,4,2,2,5,2,0,0,0,0,0,0,0,0,0,0,3,4,3,5,4,3,18,25,0,0,6,20,25,0,0,0,0,18,
1,0,0,30,20,20,1,0,0,0,0,0,0,0,0,0,6,20,25,0,0,0,0,0,0,0,0,0,0,6,20,20,20,25,0,0,0,0,0,0,0,0,0,0,0,0,0,0,0,0,0,0,0,0,0,0,0,0,0,0,0,0,0,0,0,0,0,0,18,37,0,0,6,20,1,0,0,0,0,42,
37,0,0,35,3,5,3,0,0,1610612746,2684354582,2684354582,1610612748,2684354567,0,0,18,20,37,0,0,1610612745,53,2684354584,2684354582,2684354582,2684354570,0,0,5,3,4,18,1,0,0,0,0,0,0,0,0,0,0,0,0,0,0,0,0,0,0,0,0,0,0,0,0,0,0,0,0,0,0,0,0,0,0,30,25,0,0,18,20,25,0,0,0,0,42,
25,0,0,22,0,0,0,0,0,0,0,0,6,25,0,0,42,20,13,0,0,30,20,3221225490,0,0,0,0,0,0,0,0,4,5,0,0,7,1610612761,1610612773,2684354567,0,0,7,2684354567,0,0,7,8,8,8,8,2684354567,0,0,0,0,0,0,0,0,0,0,7,1610612761,1610612749,2684354567,0,0,18,1,0,0,6,20,37,0,0,0,0,18,
37,0,0,22,0,0,0,0,0,0,0,0,18,37,0,0,4,3,2,0,0,18,20,3221225490,0,0,0,0,0,0,0,0,0,0,0,0,3221225509,20,20,25,0,0,19,3221225491,0,0,1610612744,20,20,20,20,49,8,2684354567,0,0,7,1610612761,1610612737,1610612737,1610612773,1610612749,54,20,20,25,0,0,6,25,0,0,18,20,49,52,2684354567,0,0,30,
25,0,0,22,0,0,0,0,0,0,0,0,30,37,0,0,0,0,0,0,0,18,20,3221225490,0,0,0,0,0,0,0,0,0,0,0,0,3221225497,20,20,25,0,0,1610612743,3221225479,0,0,1610612744,20,20,20,20,20,20,13,0,0,3221225509,20,20,20,20,20,20,20,20,13,0,0,6,13,0,0,6,20,20,20,13,0,0,42,
13,0,0,22,0,0,0,0,0,0,0,0,6,13,0,0,0,0,0,0,0,6,20,3221225502,0,0,0,0,0,0,0,0,7,2684354567,0,0,3221225485,20,20,25,0,0,0,0,0,0,1610612744,20,20,20,20,25,3,2,0,0,2,3,3221225497,20,20,20,20,20,20,13,0,0,30,25,0,0,30,20,20,20,13,0,0,30,
25,0,0,22,0,0,7,51,52,50,53,52,54,13,0,0,7,2684354578,2684354567,0,0,42,20,3221225514,0,0,0,0,0,0,0,0,22,4,0,0,3221225473,20,20,13,0,0,0,0,0,0,1610612744,20,20,20,20,37,0,0,0,0,0,0,3221225473,20,20,20,20,20,20,13,0,0,3,2,0,0,2,4,2,5,3,0,0,42,
37,0,0,22,0,0,4,4,3,3,3,4,3,5,0,0,18,20,3221225490,0,0,6,20,49,52,52,51,50,50,52,50,52,12,0,0,0,3221225473,20,20,2684354596,2684354582,2684354582,2684354582,2684354582,2684354582,2684354582,1610612760,2684354561,2684354585,2684354585,1610612790,1,0,0,0,0,0,0,3221225509,20,20,20,20,20,20,1,0,0,0,0,0,0,0,0,0,0,0,0,0,30,
13,0,0,3221225482,0,0,0,0,0,0,0,0,0,0,0,0,42,20,3221225514,0,0,42,20,20,20,20,20,20,20,20,20,20,25,0,0,0,3221225485,20,20,13,0,0,0,0,0,0,0,0,0,0,3221225497,1,0,0,0,0,0,0,3221225485,20,20,20,20,20,20,37,0,0,0,0,0,0,0,0,0,0,0,0,0,30,
13,0,0,0,0,0,0,0,0,0,0,0,0,0,0,0,18,20,3221225478,0,0,6,20,20,20,20,20,20,20,20,20,20,1,0,0,7,1610612785,20,20,2684354568,0,0,0,0,0,0,0,0,0,0,3221225509,37,0,0,0,0,0,0,3221225485,20,20,20,20,20,20,49,1610612737,1610612773,1610612761,1610612737,1610612749,1610612773,2684354567,0,0,7,51,53,53,54,
49,2684354567,0,0,7,53,53,50,51,52,53,51,51,52,53,52,54,20,3221225490,0,0,6,20,20,20,20,20,20,20,20,20,20,25,0,0,2,4,3,3,22,0,0,0,0,0,0,0,0,0,0,3221225497,13,0,0,0,0,0,0,3221225485,20,20,20,20,20,20,20,20,13,4,2,3,2,3,0,0,18,20,20,20,20,
20,1,0,0,30,20,20,20,20,20,20,20,20,20,20,20,20,20,3221225490,0,0,6,20,20,20,20,20,20,20,20,20,20,13,0,0,0,0,0,0,22,0,0,0,0,0,0,0,0,0,0,3221225473,49,8,2684354567,0,0,7,8,1610612785,20,20,20,20,20,20,20,20,13,0,0,0,0,0,0,0,30,20,20,20,20,
20,37,0,0,30,20,20,20,20,20,20,20,20,20,20,20,20,20,3221225478,0,0,6,20,20,20,20,20,20,20,20,20,20,13,0,0,0,0,0,0,22,0,0,0,0,0,0,0,0,0,0,3221225485,20,20,37,0,0,1610612744,2684354568,4,4,4,2,2,4,2,4,4,4,0,0,0,0,0,0,0,6,20,20,20,20,
20,37,0,0,5,3,4,2,2,5,2,4,3,2,30,20,20,20,3221225478,0,0,4,3,2,3,4,4,4,3,2,6,20,25,0,0,7,2684354567,0,0,24,8,8,2684354567,0,0,7,1610612749,2684354584,1610612758,1610612758,1610612772,20,20,37,0,0,1610612744,2684354568,0,0,0,0,0,0,0,0,0,0,0,0,0,0,0,0,0,18,20,20,20,20,
20,1,0,0,0,0,0,0,0,0,0,0,0,0,42,20,20,20,3221225502,0,0,0,0,0,0,0,0,0,0,0,4,4,2,0,0,3221225485,1,0,0,3221225485,20,20,25,0,0,3221225497,20,37,0,0,3221225509,20,20,13,0,0,1610612744,2684354568,0,0,0,0,0,0,0,0,0,0,0,0,0,0,0,0,0,18,20,20,20,20,
20,37,0,0,0,0,0,0,0,0,0,0,0,0,6,20,20,20,3221225502,0,0,0,0,0,0,0,0,0,0,0,0,0,0,0,0,3221225485,25,0,0,3221225497,20,20,25,0,0,3221225485,20,13,0,0,3221225485,20,20,13,0,0,4,3,0,0,7,52,53,53,51,52,51,2684354567,0,0,0,0,0,0,0,6,20,20,20,20,
20,25,0,0,7,51,50,51,50,51,52,2684354567,0,0,4,2,5,4,22,0,0,0,0,0,0,0,0,0,0,0,0,0,0,0,0,3221225485,25,0,0,5,4,3,5,0,0,2,2,5,0,0,4,3,2,5,0,0,0,0,0,0,30,20,20,20,20,20,20,25,0,0,0,0,0,0,0,42,20,20,20,20,
20,13,0,0,1610612788,20,20,20,20,20,20,3221225490,0,0,0,0,0,0,22,0,0,0,0,0,0,0,0,0,0,0,7,50,2684354567,0,0,3221225485,13,0,0,0,0,0,0,0,0,0,0,0,0,0,0,0,0,0,0,0,0,0,0,0,30,20,20,20,20,20,20,25,0,0,0,0,0,0,0,30,20,20,20,20,
20,13,0,0,1610612789,20,20,20,20,20,20,3221225490,0,0,0,0,0,0,22,0,0,0,0,0,0,0,0,0,0,0,1610612787,20,2684354611,0,0,3221225485,25,0,0,0,0,0,0,0,0,0,0,0,0,0,0,0,0,0,0,0,7,2684354567,0,0,5,4,4,4,18,20,20,49,52,2684354567,0,0,7,52,52,54,20,20,20,20,
20,13,0,0,1610612788,20,20,20,20,20,20,49,52,50,50,52,52,51,48,0,0,0,0,0,0,0,0,0,0,0,1610612789,20,2684354612,0,0,3221225485,49,53,53,53,53,53,53,53,51,1610612737,1610612761,1610612737,1610612773,1610612737,1610612749,1610612749,1610612737,2684354567,0,0,30,25,0,0,0,0,0,0,30,20,20,20,20,13,0,0,42,20,20,20,20,20,20,20,
37,4,0,0,2,2,2,3,3,30,20,20,20,20,20,20,20,20,2684354614,2684354567,0,0,7,51,2684354584,2684354582,2684354582,2684354582,2684354582,2684354582,1610612760,1610612790,2684354610,0,0,5,4,2,3,3,3,4,4,5,3221225485,20,20,20,20,20,20,20,20,1,0,0,30,13,0,0,0,0,0,0,30,20,20,20,20,37,0,0,30,20,20,20,20,20,20,20,
13,0,0,0,0,0,0,0,0,3,2,3,4,3,3,5,2,4,3,3,0,0,1610612787,20,2684354610,0,0,0,0,0,0,42,2684354611,0,0,0,0,0,0,0,0,0,0,0,30,20,20,13,2,3,3221225485,20,20,37,0,0,30,49,53,52,52,2684354567,0,0,30,20,20,20,20,1,0,0,18,20,20,20,20,20,20,20,
25,0,0,0,0,0,0,0,0,0,0,0,0,0,0,0,0,0,0,0,0,0,1610612789,20,2684354613,0,0,0,0,0,0,42,2684354612,0,0,0,0,0,0,0,0,0,0,0,30,20,20,13,0,0,30,20,20,37,0,0,30,20,20,20,20,25,0,0,30,20,20,20,20,1,0,0,42,20,20,20,20,20,20,20,
1,0,0,0,0,0,0,0,0,0,0,0,0,0,0,0,0,0,0,0,0,0,4,2,4,0,0,0,0,0,0,18,2684354612,0,0,7,51,52,51,50,52,2684354567,0,0,30,20,20,13,0,0,30,20,20,13,0,0,30,20,20,20,20,13,0,0,30,20,20,20,20,13,0,0,42,20,20,20,20,20,20,20,
37,0,0,0,0,0,0,0,0,7,51,51,51,52,50,50,50,50,50,2684354567,0,0,0,0,0,0,0,0,0,0,0,30,2684354612,0,0,18,20,20,20,20,20,1,0,0,30,20,20,13,0,0,30,20,20,13,0,0,30,20,20,20,20,13,0,0,2,4,4,2,2,2,0,0,5,2,3,3,4,4,5,6,
49,2684354567,0,0,7,50,52,50,50,1610612785,20,20,20,20,20,20,20,20,20,2684354613,0,0,0,0,0,0,0,0,0,0,0,42,2684354613,0,0,30,1,2,2,2,2,3,0,0,3,6,20,13,0,0,30,20,20,1,0,0,30,20,20,20,20,25,0,0,0,0,0,0,0,0,0,0,0,0,0,0,0,0,0,30,
20,37,0,0,18,20,20,20,20,20,20,20,20,20,20,20,20,20,20,2684354611,0,0,7,50,2684354567,0,0,0,0,0,0,42,2684354611,0,0,6,1,0,0,0,0,0,0,0,0,5,4,5,0,0,2,2,4,2,0,0,2,5,4,3,3,2,0,0,0,0,0,0,0,0,0,0,0,0,0,0,0,0,0,18,
20,37,0,0,30,20,20,20,20,20,20,20,20,20,20,20,20,20,20,2684354612,0,0,1610612789,20,49,52,52,50,53,53,51,1610612785,2684354613,0,0,30,25,0,0,0,0,0,0,0,0,0,0,0,0,0,0,0,0,0,0,0,0,0,0,0,0,0,0,0,7,51,52,53,53,2684354567,0,0,7,52,52,52,2684354567,0,0,6,
20,1,0,0,6,20,3221225490,3,3,3,3,5,1610612744,20,20,20,20,20,25,4,0,0,2,2,2,4,3,4,3,2,2,20,2684354610,0,0,6,1,0,0,0,0,0,0,0,0,0,0,0,0,0,0,0,0,0,0,0,0,0,0,0,0,0,0,0,30,20,20,20,20,25,0,0,30,20,20,20,3221225502,0,0,30,
20,25,0,0,2,2,5,0,0,0,0,0,1610612744,20,20,20,20,20,37,0,0,0,0,0,0,0,0,0,0,0,0,5,3,0,0,30,25,0,0,0,0,0,0,0,0,7,2684354582,2684354582,1610612748,51,2684354567,0,0,7,52,51,51,52,51,52,53,51,53,52,54,20,20,20,20,1,0,0,18,20,20,20,3221225502,0,0,18,
20,37,0,0,0,0,0,0,0,0,0,0,1610612744,20,20,20,20,20,37,0,0,0,0,0,0,0,0,0,0,0,0,0,0,0,0,30,13,0,0,0,0,0,0,0,0,23,0,0,30,20,1,0,0,30,20,20,20,20,20,20,20,20,20,20,20,20,20,20,20,13,0,0,30,20,20,20,3221225502,0,0,42,
20,13,0,0,0,0,0,0,0,0,0,0,1610612744,20,20,20,20,20,37,0,0,0,0,0,0,0,0,0,0,0,0,0,0,0,0,30,49,51,51,51,52,53,53,50,53,48,0,0,2,4,3,0,0,4,5,3,3,4,3,2,5,3,3,18,3221225490,4,4,5,3,2,0,0,3,5,4,30,3221225502,0,0,30,
20,1,0,0,7,52,2684354567,0,0,0,0,0,1610612744,20,20,20,20,20,37,0,0,0,0,0,0,0,0,0,0,0,0,7,51,51,52,54,20,20,20,20,20,20,20,20,20,25,0,0,0,0,0,0,0,0,0,0,0,0,0,0,0,0,0,18,3221225490,0,0,0,0,0,0,0,0,0,0,30,3221225502,0,0,18,
20,3221225502,0,0,30,20,49,53,50,51,53,52,54,20,20,20,20,20,2684354614,52,50,2684354567,0,0,7,51,52,53,51,53,50,54,20,20,20,20,20,20,20,20,20,20,20,20,20,25,0,0,0,0,0,0,0,0,0,0,0,0,0,0,0,0,0,18,3221225490,0,0,0,0,0,0,0,0,0,0,30,3221225502,0,0,42,
1,4,0,0,4,4,3,2,3,4,2,5,3,3,4,4,4,2,3,3,4,5,0,0,4,4,4,4,3,4,3,4,4,5,3,3,3,3,4,4,4,3,3,4,4,3,0,0,7,51,2684354584,2684354582,2684354582,2684354582,2684354582,2684354570,0,0,7,52,52,2684354567,0,4,4,0,0,0,0,0,0,0,0,0,0,1610612743,3221225479,0,0,42,
13,0,0,0,0,0,0,0,0,0,0,0,0,0,0,0,0,0,0,0,0,0,0,0,0,0,0,0,0,0,0,0,0,0,0,0,0,0,0,0,0,0,0,0,0,0,0,0,30,20,1,0,0,0,0,0,0,0,30,20,20,25,0,0,0,0,0,0,0,0,0,0,0,0,0,0,0,0,0,6,
25,0,0,0,0,0,0,0,0,0,0,0,0,0,0,0,0,0,0,0,0,0,0,0,0,0,0,0,0,0,0,0,0,0,0,0,0,0,0,0,0,0,0,0,0,0,0,0,18,20,25,0,0,0,0,0,0,0,30,20,20,13,0,0,0,0,0,0,0,0,0,0,0,0,0,0,0,0,0,30,
49,52,53,50,50,52,50,53,52,51,53,53,52,52,51,52,51,52,50,51,51,53,51,51,51,51,53,53,50,51,53,50,50,53,53,53,53,52,53,50,50,51,52,53,53,52,53,52,54,20,49,52,51,51,52,52,50,52,54,20,20,49,53,53,51,51,53,51,52,51,50,52,53,52,52,53,53,53,51,54
</data>
 </layer>
 <layer id="4" name="Props_layer" width="80" height="40" visible="0">
  <data encoding="csv">
0,0,0,0,0,0,0,0,0,0,0,0,0,0,0,0,0,0,0,0,0,0,0,0,0,0,0,0,0,0,0,0,0,0,0,0,0,0,0,0,0,0,0,0,0,0,0,0,0,0,0,0,0,0,0,0,0,0,0,0,0,0,0,0,0,0,0,0,0,0,0,0,0,0,0,0,0,0,0,0,
0,0,0,0,0,0,0,0,0,0,0,0,0,0,0,0,0,0,0,0,0,0,0,0,0,0,0,0,0,0,0,0,0,0,0,0,0,0,0,0,0,0,0,0,0,0,0,0,0,0,0,0,0,0,0,0,0,0,0,0,0,0,0,0,0,0,0,0,0,0,0,0,0,0,0,0,0,0,0,0,
0,0,0,0,0,0,0,0,0,0,0,0,0,0,0,0,0,0,0,0,0,0,0,0,0,0,0,0,0,0,0,0,0,0,0,0,0,0,0,0,0,0,0,0,0,0,0,0,0,0,0,0,0,0,0,0,0,0,0,0,0,0,0,0,0,0,0,0,0,0,0,0,0,0,0,0,0,0,0,0,
0,0,0,0,0,0,0,0,0,0,0,0,0,0,0,0,0,0,0,0,0,0,0,0,0,0,0,0,0,0,0,0,0,0,0,0,0,0,0,0,0,0,0,0,0,0,0,0,0,0,0,0,0,0,0,0,0,0,0,0,0,0,0,0,0,0,0,0,0,0,0,0,0,0,0,0,0,0,0,0,
0,0,0,0,0,0,0,0,0,0,0,0,0,0,0,0,0,0,0,0,0,0,0,0,0,0,0,0,0,0,0,0,0,0,0,0,0,0,0,0,0,0,0,0,0,0,0,0,0,0,0,0,0,0,0,0,0,0,0,0,0,0,0,0,0,0,0,0,0,0,0,0,0,0,0,0,0,0,0,0,
0,0,0,0,0,0,0,0,0,0,0,0,0,0,0,0,0,0,0,0,0,0,0,0,0,0,0,0,0,0,0,0,0,0,0,0,0,0,0,0,0,0,0,0,0,0,0,0,0,0,0,0,0,0,0,0,0,0,0,0,0,0,0,0,0,0,0,0,0,0,0,0,0,0,0,0,0,0,0,0,
0,0,0,0,0,0,0,0,0,0,0,0,0,0,0,0,0,0,0,0,0,0,0,0,0,0,0,0,0,0,0,0,0,0,0,0,0,0,0,0,0,0,0,0,0,0,0,0,0,0,0,0,0,0,0,0,0,0,0,0,0,0,0,0,0,0,0,0,0,0,0,0,0,0,0,0,0,0,0,0,
0,0,0,0,0,0,0,0,0,0,0,0,0,0,0,0,0,0,0,0,0,0,0,0,0,0,0,0,0,0,0,0,0,0,0,0,0,0,0,0,0,0,0,0,0,0,0,0,0,0,0,0,0,0,0,0,0,0,0,0,0,0,0,0,0,0,0,0,0,0,0,0,0,0,0,0,0,0,0,0,
0,0,0,0,0,0,0,0,0,0,0,0,0,0,0,0,0,0,0,0,0,0,0,0,0,0,0,0,0,0,0,0,0,0,0,0,0,0,0,0,0,0,0,0,0,0,0,0,0,0,0,0,0,0,0,0,0,0,0,0,0,0,0,0,0,0,0,0,0,0,0,0,0,0,0,0,0,0,0,0,
0,0,0,0,0,0,0,0,0,0,0,0,0,0,0,0,0,0,0,0,0,0,0,0,0,0,0,0,0,0,0,0,0,0,0,0,0,0,0,0,0,0,0,0,0,0,0,0,0,0,0,0,0,0,0,0,0,0,0,0,0,0,0,0,0,0,0,0,0,0,0,0,0,0,0,0,0,0,0,0,
0,0,0,0,0,0,0,0,0,0,0,0,0,0,0,0,0,0,0,0,0,0,0,0,0,0,0,0,0,0,0,0,0,0,0,0,0,0,0,0,0,0,0,0,0,0,0,0,0,0,0,0,0,0,0,0,0,0,0,0,0,0,0,0,0,0,0,0,0,0,0,0,0,0,0,0,0,0,0,0,
0,0,0,0,0,0,0,0,0,0,0,0,0,0,0,0,0,0,0,0,0,0,0,0,0,0,0,0,0,0,0,0,0,0,0,0,0,0,0,0,0,0,0,0,0,0,0,0,0,0,0,0,0,0,0,0,0,0,0,0,0,0,0,0,0,0,0,0,0,0,0,0,0,0,0,0,0,0,0,0,
0,0,0,0,0,0,0,0,0,0,0,0,0,0,0,0,0,0,0,0,0,0,0,0,0,0,0,0,0,0,0,0,0,0,0,0,0,0,0,0,0,0,0,0,0,0,0,0,0,0,0,0,0,0,0,0,0,0,0,0,0,0,0,0,0,0,0,0,0,0,0,0,0,0,0,0,0,0,0,0,
0,0,0,0,0,0,0,0,0,0,0,0,0,0,0,0,0,0,0,0,0,0,0,0,0,0,0,0,0,0,0,0,0,0,0,0,0,0,0,0,0,0,0,0,0,0,0,0,0,0,0,0,0,0,0,0,0,0,0,0,0,0,0,0,0,0,0,0,0,0,0,0,0,0,0,0,0,0,0,0,
0,0,0,0,0,0,0,0,0,0,0,0,0,0,0,0,0,0,0,0,0,0,0,0,0,0,0,0,0,0,0,0,0,0,0,0,0,0,0,0,0,0,0,0,0,0,0,0,0,0,0,0,0,0,0,0,0,0,0,0,0,0,0,0,0,0,0,0,0,0,0,0,0,0,0,0,0,0,0,0,
0,0,0,0,0,0,0,0,0,0,0,0,0,0,0,0,0,0,0,0,0,0,0,0,0,0,0,0,0,0,0,0,0,0,0,0,0,0,0,0,0,0,0,0,0,0,0,0,0,0,0,0,0,0,0,0,0,0,0,0,0,0,0,0,0,0,0,0,0,0,0,0,0,0,0,0,0,0,0,0,
0,0,0,0,0,0,0,0,0,0,0,0,0,0,0,0,0,0,0,0,0,0,0,0,0,0,0,0,0,0,0,0,0,0,0,0,0,0,0,0,0,0,0,0,0,0,0,0,0,0,0,0,0,0,0,0,0,0,0,0,0,0,0,0,0,0,0,0,0,0,0,0,0,0,0,0,0,0,0,0,
0,0,0,0,0,0,0,0,0,0,0,0,0,0,0,0,0,0,0,0,0,0,0,0,0,0,0,0,0,0,0,0,0,0,0,0,0,0,0,0,0,0,0,0,0,0,0,0,0,0,0,0,0,0,0,0,0,0,0,0,0,0,0,0,0,0,0,0,0,0,0,0,0,0,0,0,0,0,0,0,
0,0,0,0,0,0,0,0,0,0,0,0,0,0,0,0,0,0,0,0,0,0,0,0,0,0,0,0,0,0,0,0,0,0,0,0,0,0,0,0,0,0,0,0,0,0,0,0,0,0,0,0,0,0,0,0,0,0,0,0,0,0,0,0,0,0,0,0,0,0,0,0,0,0,0,0,0,0,0,0,
0,0,0,0,0,0,0,0,0,0,0,0,0,0,0,0,0,0,0,0,0,0,0,0,0,0,0,0,0,0,0,0,0,0,0,0,0,0,0,0,0,0,0,0,0,0,0,0,0,0,0,0,0,0,0,0,0,0,0,0,0,0,0,0,0,0,0,0,0,0,0,0,0,0,0,0,0,0,0,0,
0,0,0,0,0,0,0,0,0,0,0,0,0,0,0,0,0,0,0,0,0,0,0,0,0,0,0,0,0,0,0,0,0,0,0,0,0,0,0,0,0,0,0,0,0,0,0,0,0,0,0,0,0,0,0,0,0,0,0,0,0,0,0,0,0,0,0,0,0,0,0,0,0,0,0,0,0,0,0,0,
0,0,0,0,0,0,0,0,0,0,0,0,0,0,0,0,0,0,0,0,0,0,0,0,0,0,0,0,0,0,0,0,0,0,0,0,0,0,0,0,0,0,0,0,0,0,0,0,0,0,0,0,0,0,0,0,0,0,0,0,0,0,0,0,0,0,0,0,0,0,0,0,0,0,0,0,0,0,0,0,
0,0,0,0,0,0,0,0,0,0,0,0,0,0,0,0,0,0,0,0,0,0,0,0,0,0,0,0,0,0,0,0,0,0,0,0,0,0,0,0,0,0,0,0,0,0,0,0,0,0,0,0,0,0,0,0,0,0,0,0,0,0,0,0,0,0,0,0,0,0,0,0,0,0,0,0,0,0,0,0,
0,0,0,0,0,0,0,0,0,0,0,0,0,0,0,0,0,0,0,0,0,0,0,0,0,0,0,0,0,0,0,0,0,0,0,0,0,0,0,0,0,0,0,0,0,0,0,0,0,0,0,0,0,0,0,0,0,0,0,0,0,0,0,0,0,0,0,0,0,0,0,0,0,0,0,0,0,0,0,0,
0,0,0,0,0,0,0,0,0,0,0,0,0,0,0,0,0,0,0,0,0,0,0,0,0,0,0,0,0,0,0,0,0,0,0,0,0,0,0,0,0,0,0,0,0,0,0,0,0,0,0,0,0,0,0,0,0,0,0,0,0,0,0,0,0,0,0,0,0,0,0,0,0,0,0,0,0,0,0,0,
0,0,0,0,0,0,0,0,0,0,0,0,0,0,0,0,0,0,0,0,0,0,0,0,0,0,0,0,0,0,0,0,0,0,0,0,0,0,0,0,0,0,0,0,0,0,0,0,0,0,0,0,0,0,0,0,0,0,0,0,0,0,0,0,0,0,0,0,0,0,0,0,0,0,0,0,0,0,0,0,
0,0,0,0,0,0,0,0,0,0,0,0,0,0,0,0,0,0,0,0,0,0,0,0,0,0,0,0,0,0,0,0,0,0,0,0,0,0,0,0,0,0,0,0,0,0,0,0,0,0,0,0,0,0,0,0,0,0,0,0,0,0,0,0,0,0,0,0,0,0,0,0,0,0,0,0,0,0,0,0,
0,0,0,0,0,0,0,0,0,0,0,0,0,0,0,0,0,0,0,0,0,0,0,0,0,0,0,0,0,0,0,0,0,0,0,0,0,0,0,0,0,0,0,0,0,0,0,0,0,0,0,0,0,0,0,0,0,0,0,0,0,0,0,0,0,0,0,0,0,0,0,0,0,0,0,0,0,0,0,0,
0,0,0,0,0,0,0,0,0,0,0,0,0,0,0,0,0,0,0,0,0,0,0,0,0,0,0,0,0,0,0,0,0,0,0,0,0,0,0,0,0,0,0,0,0,0,0,0,0,0,0,0,0,0,0,0,0,0,0,0,0,0,0,0,0,0,0,0,0,0,0,0,0,0,0,0,0,0,0,0,
0,0,0,0,0,0,0,0,0,0,0,0,0,0,0,0,0,0,0,0,0,0,0,0,0,0,0,0,0,0,0,0,0,0,0,0,0,0,0,0,0,0,0,0,0,0,0,0,0,0,0,0,0,0,0,0,0,0,0,0,0,0,0,0,0,0,0,0,0,0,0,0,0,0,0,0,0,0,0,0,
0,0,0,0,0,0,0,0,0,0,0,0,0,0,0,0,0,0,0,0,0,0,0,0,0,0,0,0,0,0,0,0,0,0,0,0,0,0,0,0,0,0,0,0,0,0,0,0,0,0,0,0,0,0,0,0,0,0,0,0,0,0,0,0,0,0,0,0,0,0,0,0,0,0,0,0,0,0,0,0,
0,0,0,0,0,0,0,0,0,0,0,0,0,0,0,0,0,0,0,0,0,0,0,0,0,0,0,0,0,0,0,0,0,0,0,0,0,0,0,0,0,0,0,0,0,0,0,0,0,0,0,0,0,0,0,0,0,0,0,0,0,0,0,0,0,0,0,0,0,0,0,0,0,0,0,0,0,0,0,0,
0,0,0,0,0,0,0,0,0,0,0,0,0,0,0,0,0,0,0,0,0,0,0,0,0,0,0,0,0,0,0,0,0,0,0,0,0,0,0,0,0,0,0,0,0,0,0,0,0,0,0,0,0,0,0,0,0,0,0,0,0,0,0,0,0,0,0,0,0,0,0,0,0,0,0,0,0,0,0,0,
0,0,0,0,0,0,0,0,0,0,0,0,0,0,0,0,0,0,0,0,0,0,0,0,0,0,0,0,0,0,0,0,0,0,0,0,0,0,0,0,0,0,0,0,0,0,0,0,0,0,0,0,0,0,0,0,0,0,0,0,0,0,0,0,0,0,0,0,0,0,0,0,0,0,0,0,0,0,0,0,
0,0,0,0,0,0,0,0,0,0,0,0,0,0,0,0,0,0,0,0,0,0,0,0,0,0,0,0,0,0,0,0,0,0,0,0,0,0,0,0,0,0,0,0,0,0,0,0,0,0,0,0,0,0,0,0,0,0,0,0,0,0,0,0,0,0,0,0,0,0,0,0,0,0,0,0,0,0,0,0,
0,0,0,0,0,0,0,0,0,0,0,0,0,0,0,0,0,0,0,0,0,0,0,0,0,0,0,0,0,0,0,0,0,0,0,0,0,0,0,0,0,0,0,0,0,0,0,0,0,0,0,0,0,0,0,0,0,0,0,0,0,0,0,0,0,0,0,0,0,0,0,0,0,0,0,0,0,0,0,0,
0,0,0,0,0,0,0,0,0,0,0,0,0,0,0,0,0,0,0,0,0,0,0,0,0,0,0,0,0,0,0,0,0,0,0,0,0,0,0,0,0,0,0,0,0,0,0,0,0,0,0,0,0,0,0,0,0,0,0,0,0,0,0,0,0,0,0,0,0,0,0,0,0,0,0,0,0,0,0,0,
0,0,0,0,0,0,0,0,0,0,0,0,0,0,0,0,0,0,0,0,0,0,0,0,0,0,0,0,0,0,0,0,0,0,0,0,0,0,0,0,0,0,0,0,0,0,0,0,0,0,0,0,0,0,0,0,0,0,0,0,0,0,0,0,0,0,0,0,0,0,0,0,0,0,0,0,0,0,0,0,
0,0,0,0,0,0,0,0,0,0,0,0,0,0,0,0,0,0,0,0,0,0,0,0,0,0,0,0,0,0,0,0,0,0,0,0,0,0,0,0,0,0,0,0,0,0,0,0,0,0,0,0,0,0,0,0,0,0,0,0,0,0,0,0,0,0,0,0,0,0,0,0,0,0,0,0,0,0,0,0,
0,0,0,0,0,0,0,0,0,0,0,0,0,0,0,0,0,0,0,0,0,0,0,0,0,0,0,0,0,0,0,0,0,0,0,0,0,0,0,0,0,0,0,0,0,0,0,0,0,0,0,0,0,0,0,0,0,0,0,0,0,0,0,0,0,0,0,0,0,0,0,0,0,0,0,0,0,0,0,0
</data>
 </layer>
 <objectgroup id="3" name="Entities">
  <object id="7" name="End" type="end" x="1408" y="320" width="64" height="32"/>
  <object id="8" name="PNJ" type="pnj" x="241.333" y="191.667">
   <point/>
  </object>
  <object id="11" name="Spike1" type="spike" x="96" y="1088" width="32" height="32"/>
  <object id="12" name="Spike2" type="spike" x="64" y="1088" width="32" height="32"/>
  <object id="15" name="Spike3" type="spike" x="448" y="1216" width="32" height="32" rotation="90"/>
  <object id="16" name="Spike4" type="spike" x="448" y="1184" width="32" height="32" rotation="90"/>
  <object id="17" name="Spike6" type="spike" x="480" y="96" width="32" height="32"/>
  <object id="18" name="Spike" type="spike" x="448" y="96" width="32" height="32"/>
  <object id="19" name="Spike7" type="spike" x="2144" y="160" width="32" height="32"/>
  <object id="20" name="Spike8" type="spike" x="2112" y="160" width="32" height="32"/>
  <object id="21" name="Spike9" type="spike" x="1376" y="800" width="32" height="32"/>
  <object id="22" name="Spike10" type="spike" x="1344" y="800" width="32" height="32"/>
  <object id="23" name="Spike11" type="spike" x="1888" y="960" width="32" height="32" rotation="90"/>
  <object id="24" name="Spike12" type="spike" x="1888" y="928" width="32" height="32" rotation="90"/>
  <object id="25" name="Spike13" type="spike" x="1504" y="640" width="32" height="32" rotation="90"/>
  <object id="26" name="Spike14" type="spike" x="1504" y="608" width="32" height="32" rotation="90"/>
  <object id="27" name="Door1" type="door" x="480" y="768" width="32" height="64">
   <properties>
    <property name="groupe" value="door1"/>
   </properties>
  </object>
  <object id="28" name="Pressure_plate1" type="pressure_plate" x="384" y="800" width="32" height="32">
   <properties>
    <property name="groupe" value="door1"/>
   </properties>
  </object>
  <object id="29" name="Door2" type="door" x="192" y="256" width="32" height="64" rotation="90">
   <properties>
    <property name="groupe" value="door2"/>
   </properties>
  </object>
  <object id="30" name="Pressure_plate2" type="pressure_plate" x="128" y="320" width="32" height="32">
   <properties>
    <property name="groupe" value="door2"/>
   </properties>
  </object>
  <object id="31" name="Door3" type="door" x="288" y="32" width="32" height="64">
   <properties>
    <property name="groupe" value="door3"/>
   </properties>
  </object>
  <object id="32" name="Pressure_plate3" type="pressure_plate" x="384" y="32" width="32" height="32">
   <properties>
    <property name="groupe" value="door3"/>
   </properties>
  </object>
  <object id="33" name="Door4" type="door" x="672" y="388" width="32" height="64" rotation="90">
   <properties>
    <property name="groupe" value="door4"/>
   </properties>
  </object>
  <object id="34" name="Pressure_plate4" type="pressure_plate" x="672" y="288" width="32" height="32" rotation="90">
   <properties>
    <property name="groupe" value="door4"/>
   </properties>
  </object>
  <object id="35" name="Door5" type="door" x="992" y="1024" width="32" height="64">
   <properties>
    <property name="groupe" value="door5"/>
   </properties>
  </object>
  <object id="36" name="Pressure_plate5" type="pressure_plate" x="1088" y="1024" width="32" height="32">
   <properties>
    <property name="groupe" value="door5"/>
   </properties>
  </object>
  <object id="37" name="Spawn" type="spawn" x="96.75" y="1233.33">
   <point/>
  </object>
  <object id="39" name="Door6" type="door" x="1696" y="993.333" width="32" height="64" rotation="90">
   <properties>
    <property name="groupe" value="door6"/>
   </properties>
  </object>
  <object id="40" name="Pressure_plate6" type="pressure_plate" x="1632.67" y="1055.67" width="32" height="32">
   <properties>
    <property name="groupe" value="door6"/>
   </properties>
  </object>
  <object id="41" name="Door7" type="door" x="1792" y="576" width="32" height="64">
   <properties>
    <property name="groupe" value="door7"/>
   </properties>
  </object>
  <object id="42" name="Pressure_plate7" type="pressure_plate" x="1888" y="576" width="32" height="32">
   <properties>
    <property name="groupe" value="door7"/>
   </properties>
  </object>
  <object id="45" name="Door8" type="door" x="128" y="864" width="32" height="64" rotation="90">
   <properties>
    <property name="groupe" value="door8"/>
   </properties>
  </object>
  <object id="46" name="Pressure_plate8" type="pressure_plate" x="64" y="928" width="32" height="32">
   <properties>
    <property name="groupe" value="door8"/>
   </properties>
  </object>
  <object id="47" name="Door9" type="door" x="2304" y="1024" width="32" height="64" rotation="90">
   <properties>
    <property name="groupe" value="door9"/>
   </properties>
  </object>
  <object id="48" name="Pressure_plate9" type="pressure_plate" x="2304" y="928" width="32" height="32" rotation="90">
   <properties>
    <property name="groupe" value="door9"/>
   </properties>
  </object>
  <object id="49" name="Door_final" type="door" x="1440" y="544" width="32" height="64" rotation="90">
   <properties>
    <property name="groupe" value="door_final"/>
   </properties>
  </object>
  <object id="50" name="Potion" type="potion" x="304.5" y="1024.5">
   <point/>
  </object>
  <object id="52" name="Torch16" type="torch" x="912.591" y="800.076">
   <point/>
  </object>
  <object id="53" name="Torch16" type="torch" x="736.053" y="607.773">
   <point/>
  </object>
  <object id="54" name="Torch12" type="torch" x="721.25" y="1055.92">
   <point/>
  </object>
  <object id="55" name="Torch25" type="torch" x="1664.06" y="1215.94">
   <point/>
  </object>
  <object id="56" name="Torch33" type="torch" x="2161.33" y="1183.67">
   <point/>
  </object>
  <object id="57" name="Torch40" type="torch" x="2225" y="528">
   <point/>
  </object>
  <object id="58" name="Torch37" type="torch" x="2432.33" y="95.6667">
   <point/>
  </object>
  <object id="59" name="Torch30" type="torch" x="1760" y="95.8788">
   <point/>
  </object>
  <object id="60" name="Torch28" type="torch" x="1712.91" y="320.061">
   <point/>
  </object>
  <object id="61" name="Torch18" type="torch" x="896.333" y="208.667">
   <point/>
  </object>
  <object id="62" name="Torch7" type="torch" x="64.3333" y="64.3333">
   <point/>
  </object>
  <object id="63" name="Torch11" type="torch" x="544.333" y="640">
   <point/>
  </object>
  <object id="64" name="Torch3" type="torch" x="192" y="768">
   <point/>
  </object>
  <object id="65" name="Torch36" type="torch" x="2272" y="64">
   <point/>
  </object>
  <object id="66" name="Torch1" type="torch" x="144" y="1214.5">
   <point/>
  </object>
  <object id="67" name="Torch2" type="torch" x="305.5" y="1088">
   <point/>
  </object>
  <object id="68" name="Torch4" type="torch" x="192" y="832">
   <point/>
  </object>
  <object id="69" name="Torch6" type="torch" x="64" y="192.333">
   <point/>
  </object>
  <object id="70" name="Torch8" type="torch" x="319.75" y="192">
   <point/>
  </object>
  <object id="71" name="Torch9" type="torch" x="479.833" y="352">
   <point/>
  </object>
  <object id="72" name="Torch10" type="torch" x="639.917" y="64.0833">
   <point/>
  </object>
  <object id="73" name="Torch31" type="torch" x="1888" y="96.1667">
   <point/>
  </object>
  <object id="74" name="Torch29" type="torch" x="1808.55" y="319.939">
   <point/>
  </object>
  <object id="75" name="Torch39" type="torch" x="2352.67" y="528">
   <point/>
  </object>
  <object id="76" name="Torch38" type="torch" x="2496.33" y="96">
   <point/>
  </object>
  <object id="77" name="Torch34" type="torch" x="2256.33" y="1184">
   <point/>
  </object>
  <object id="78" name="Torch35" type="torch" x="2342.67" y="1184">
   <point/>
  </object>
  <object id="79" name="Torch26" type="torch" x="1824.13" y="1215.71">
   <point/>
  </object>
  <object id="80" name="Torch23" type="torch" x="1504" y="1216.25">
   <point/>
  </object>
  <object id="81" name="Torch24" type="torch" x="1504" y="1056">
   <point/>
  </object>
  <object id="82" name="Torch21" type="torch" x="1248.33" y="977">
   <point/>
  </object>
  <object id="83" name="Torch22" type="torch" x="1376" y="977">
   <point/>
  </object>
  <object id="84" name="Torch14" type="torch" x="1056.67" y="1216.33">
   <point/>
  </object>
  <object id="85" name="Torch13" type="torch" x="897.333" y="1055.67">
   <point/>
  </object>
  <object id="86" name="Torch15" type="torch" x="913.455" y="863.727">
   <point/>
  </object>
  <object id="87" name="Torch17" type="torch" x="864.333" y="607.333">
   <point/>
  </object>
  <object id="89" name="Torch5" type="torch" x="192" y="542.667">
   <point/>
  </object>
  <object id="90" name="Torch20" type="torch" x="1376" y="256.25">
   <point/>
  </object>
  <object id="91" name="Torch19" type="torch" x="1120.17" y="320">
   <point/>
  </object>
  <object id="92" name="Torch32" type="torch" x="2016.33" y="704.167">
   <point/>
  </object>
  <object id="93" name="Torch27" type="torch" x="1760.3" y="783.879">
   <point/>
  </object>
  <object id="94" name="Shield" type="object" x="55" y="1215">
   <point/>
  </object>
  <object id="95" name="Skeleton1" type="skeleton" x="36" y="799">
   <properties>
    <property name="direction" value="right"/>
   </properties>
   <point/>
  </object>
  <object id="96" name="Skeleton2" type="skeleton" x="772" y="208">
   <properties>
    <property name="direction" value="right"/>
   </properties>
   <point/>
  </object>
  <object id="97" name="Skeleton3" type="skeleton" x="800" y="518">
   <properties>
    <property name="direction" value="down"/>
   </properties>
   <point/>
  </object>
  <object id="98" name="Skeleton4" type="skeleton" x="864" y="1120">
   <properties>
    <property name="direction" value="up"/>
   </properties>
   <point/>
  </object>
  <object id="99" name="Skeleton5" type="skeleton" x="1824" y="38">
   <properties>
    <property name="direction" value="down"/>
   </properties>
   <point/>
  </object>
  <object id="100" name="Skeleton6" type="skeleton" x="2085" y="1120">
   <properties>
    <property name="direction" value="right"/>
   </properties>
   <point/>
  </object>
  <object id="101" name="Skeleton7" type="skeleton" x="2182" y="576">
   <properties>
    <property name="direction" value="right"/>
   </properties>
   <point/>
  </object>
 </objectgroup>
</map>
